Origami/24x24/apps/nitroshare.svg

<svg width="24" height="24" version="1" xmlns="http://www.w3.org/2000/svg">
 <path d="m13.941406 1.5008699c-0.509747 0.01475-0.99461 0.2236241-1.355468 0.5839195l-3.414063 3.4136829h-2.171875c-1.1045238 1.104e-4 -1.9998896 0.8953766-2 1.9997776v9.9988881c1.104e-4 1.104402 0.8954762 1.999668 2 1.999778h1v0.999889c6.997e-4 1.781075 2.154073 2.672876 3.414062 1.413905l3.414063-3.413683h2.171875c1.104524-1.1e-4 1.99989-0.895376 2-1.999777v-9.9988889c-1.1e-4 -1.104401-0.895476-1.9996672-2-1.9997776h-1v-0.9998888c-7.33e-4 -1.1269207-0.932028-2.0307245-2.058594-1.9978248z" style="opacity:.2"/>
 <path d="m13.941406 1.0008701c-0.509747 0.01475-0.99461 0.2236241-1.355468 0.5839195l-3.414063 3.4136829h-2.171875c-1.1045238 1.104e-4 -1.9998896 0.8953766-2 1.9997776v9.9988879c1.104e-4 1.104402 0.8954762 1.999668 2 1.999778h1v0.999889c6.997e-4 1.781075 2.154073 2.672876 3.414062 1.413905l3.414063-3.413683h2.171875c1.104524-1.1e-4 1.99989-0.895376 2-1.999777v-9.9988887c-1.1e-4 -1.104401-0.895476-1.9996672-2-1.9997776h-1v-0.9998888c-7.33e-4 -1.1269207-0.932028-2.0307244-2.058594-1.9978248z" style="fill:#4f4f4f"/>
 <path d="m14 3-4 4h-3v10h3v3l4-4h3v-10h-3z" opacity=".3"/>
 <path d="m8 8.5v6h2v-3l4 4h2v-6h-2v3l-4-4h-2z" opacity=".2"/>
 <path d="m8 8v6h2v-3l4 4h2v-6h-2v3l-4-4z" fill="#fff"/>
 <path d="m13.941406 1c-0.509747 0.01475-0.994611 0.223689-1.355468 0.5839844l-3.414063 3.4140625h-2.171875c-1.1045238 1.104e-4 -1.9998896 0.895599-2 2v0.5c1.104e-4 -1.104401 0.8954762-1.9998896 2-2h2.171875l3.414063-3.4140625c0.360857-0.3602954 0.845721-0.5692344 1.355468-0.5839844 1.126566-0.0328997 2.057861 0.8711262 2.058594 1.9980469v-0.5c-7.33e-4 -1.1269207-0.932028-2.0309465-2.058594-1.9980469zm2.058594 2.9980469v0.5h1c1.104524 1.104e-4 1.99989 0.895599 2 2v-0.5c-1.1e-4 -1.104401-0.895476-1.9998896-2-2h-1z" style="fill:#ffffff;opacity:.1"/>
</svg>

<svg xmlns="http://www.w3.org/2000/svg" width="24" height="24" version="1">
 <path style="opacity:0.2" d="m 13.941406,1.5008699 c -0.509747,0.01475 -0.99461,0.2236241 -1.355468,0.5839195 L 9.171875,5.4984723 H 7 C 5.8954762,5.4985827 5.0001104,6.3938489 5,7.4982499 v 9.9988881 c 1.104e-4,1.104402 0.8954762,1.999668 2,1.999778 h 1 v 0.999889 c 6.997e-4,1.781075 2.154073,2.672876 3.414062,1.413905 l 3.414063,-3.413683 H 17 c 1.104524,-1.1e-4 1.99989,-0.895376 2,-1.999777 V 6.4983611 C 18.99989,5.3939601 18.104524,4.4986939 17,4.4985835 H 16 V 3.4986947 C 15.999267,2.371774 15.067972,1.4679702 13.941406,1.5008699 Z"/>
 <path style="fill:#4f4f4f" d="m 13.941406,1.0008701 c -0.509747,0.01475 -0.99461,0.2236241 -1.355468,0.5839195 L 9.171875,4.9984725 H 7 C 5.8954762,4.9985829 5.0001104,5.8938491 5,6.9982501 v 9.9988879 c 1.104e-4,1.104402 0.8954762,1.999668 2,1.999778 h 1 v 0.999889 c 6.997e-4,1.781075 2.154073,2.672876 3.414062,1.413905 l 3.414063,-3.413683 H 17 c 1.104524,-1.1e-4 1.99989,-0.895376 2,-1.999777 V 5.9983613 C 18.99989,4.8939603 18.104524,3.9986941 17,3.9985837 H 16 V 2.9986949 C 15.999267,1.8717742 15.067972,0.96797046 13.941406,1.0008701 Z"/>
 <path opacity=".3" d="m14 3-4 4h-3v10h3v3l4-4h3v-10h-3z"/>
 <path opacity=".2" d="m8 8.5v6h2v-3l4 4h2v-6h-2v3l-4-4h-2z"/>
 <path fill="#fff" d="m8 8v6h2v-3l4 4h2v-6h-2v3l-4-4z"/>
 <path style="opacity:0.1;fill:#ffffff" d="M 13.941406 1 C 13.431659 1.01475 12.946795 1.223689 12.585938 1.5839844 L 9.171875 4.9980469 L 7 4.9980469 C 5.8954762 4.9981573 5.0001104 5.8936459 5 6.9980469 L 5 7.4980469 C 5.0001104 6.3936459 5.8954762 5.4981573 7 5.4980469 L 9.171875 5.4980469 L 12.585938 2.0839844 C 12.946795 1.723689 13.431659 1.51475 13.941406 1.5 C 15.067972 1.4671003 15.999267 2.3711262 16 3.4980469 L 16 2.9980469 C 15.999267 1.8711262 15.067972 0.96710036 13.941406 1 z M 16 3.9980469 L 16 4.4980469 L 17 4.4980469 C 18.104524 4.4981573 18.99989 5.3936459 19 6.4980469 L 19 5.9980469 C 18.99989 4.8936459 18.104524 3.9981573 17 3.9980469 L 16 3.9980469 z"/>
</svg>
